SVG_Azure_All/Azure Cosmos DB Document Explorer.svg

<?xml version="1.0" encoding="UTF-8" standalone="no"?>
<!-- Generated by Microsoft Visio, SVG Export Azure Cosmos DB Document Explorer.svg Page-1 -->

<svg
   xmlns:dc="http://purl.org/dc/elements/1.1/"
   xmlns:cc="http://creativecommons.org/ns#"
   xmlns:rdf="http://www.w3.org/1999/02/22-rdf-syntax-ns#"
   xmlns:svg="http://www.w3.org/2000/svg"
   xmlns="http://www.w3.org/2000/svg"
   xmlns:sodipodi="http://sodipodi.sourceforge.net/DTD/sodipodi-0.dtd"
   xmlns:inkscape="http://www.inkscape.org/namespaces/inkscape"
   width="0.78734744in"
   height="0.78740293in"
   viewBox="0 0 56.6891 56.693096"
   xml:space="preserve"
   class="st5"
   version="1.1"
   id="svg36"
   sodipodi:docname="Azure Cosmos DB Document Explorer.svg"
   style="font-size:12px;overflow:visible;color-interpolation-filters:sRGB;fill:none;fill-rule:evenodd;stroke-linecap:square;stroke-miterlimit:3"
   inkscape:version="0.92.5 (2060ec1f9f, 2020-04-08)"><metadata
   id="metadata42"><rdf:RDF><cc:Work
       rdf:about=""><dc:format>image/svg+xml</dc:format><dc:type
         rdf:resource="http://purl.org/dc/dcmitype/StillImage" /></cc:Work></rdf:RDF></metadata><defs
   id="defs40" /><sodipodi:namedview
   pagecolor="#ffffff"
   bordercolor="#666666"
   borderopacity="1"
   objecttolerance="10"
   gridtolerance="10"
   guidetolerance="10"
   inkscape:pageopacity="0"
   inkscape:pageshadow="2"
   inkscape:window-width="640"
   inkscape:window-height="480"
   id="namedview38"
   showgrid="false"
   inkscape:zoom="1.3289007"
   inkscape:cx="37.785819"
   inkscape:cy="37.791271"
   inkscape:window-x="0"
   inkscape:window-y="0"
   inkscape:window-maximized="0"
   inkscape:current-layer="svg36" />
	<style
   type="text/css"
   id="style2">
	<![CDATA[
		.st1 {fill:#2bace2;stroke:none;stroke-linecap:butt;stroke-width:38.25}
		.st2 {fill:#7a7a7a}
		.st3 {stroke:none;stroke-linecap:butt;stroke-width:38.25}
		.st4 {fill:#00aeef;stroke:none;stroke-linecap:butt;stroke-width:38.25}
		.st5 {fill:none;fill-rule:evenodd;font-size:12px;overflow:visible;stroke-linecap:square;stroke-miterlimit:3}
	]]>
	</style>

	<g
   id="g34"
   transform="translate(-38.257095,-38.2469)">
		<title
   id="title4">Page-1</title>
		<g
   id="group8311-1"
   transform="translate(38.25,-38.25)">
			<title
   id="title6">Azure Cosmos DB Document Explorer</title>
			<g
   id="group8312-2">
				<title
   id="title8">Sheet.8312</title>
				<g
   id="shape8313-3"
   transform="translate(22.8662,-17.8631)">
					<title
   id="title10">Sheet.8313</title>
					<path
   d="M 0.11,100.57 V 94.36 H 0 33.83 v 38.83 H 27.7 v -1.58 h 4.6 V 95.52 H 1.6 v -0.29 5.34 z"
   class="st1"
   id="path12"
   inkscape:connector-curvature="0"
   style="fill:#2bace2;stroke:none;stroke-width:38.25;stroke-linecap:butt" />
				</g>
				<g
   id="shape8314-5">
					<title
   id="title15">Sheet.8314</title>
					<path
   d="M 4.21,133.16 A 4.34406,4.40263 0 0 1 1.15,132 a 4.66452,4.72742 0 0 1 0,-6.2 l 9.97,-9.97 a 13.8511,14.0379 0 0 1 -1.14,-10.46 14.2428,14.4349 0 0 1 14.24,-11.26 10.6821,10.8261 0 0 1 3.56,0.4 12.7473,12.9192 0 0 1 8.79,6.6 14.2428,14.4349 0 0 1 1.36,11.12 14.2428,14.4349 0 0 1 -14.24,11.26 10.6821,10.8261 0 0 1 -3.57,-0.4 13.6019,13.7853 0 0 1 -3.56,-1.55 l -9.97,10.1 a 3.88117,3.9335 0 0 1 -2.67,1.55 z M 23.76,99.78 a 8.97298,9.09396 -180 0 0 -8.83,7 9.89876,10.0322 -180 0 0 1.14,7.21 l 2.31,2.35 3.56,1.16 h 1.92 a 8.97298,9.09396 -180 0 0 8.69,-6.86 9.40026,9.52701 -180 0 0 -6.51,-10.83 h -2.28 z"
   class="st2"
   id="path17"
   inkscape:connector-curvature="0"
   style="fill:#7a7a7a" />
					<path
   d="M 4.21,133.16 A 4.34406,4.40263 0 0 1 1.15,132 a 4.66452,4.72742 0 0 1 0,-6.2 l 9.97,-9.97 a 13.8511,14.0379 0 0 1 -1.14,-10.46 14.2428,14.4349 0 0 1 14.24,-11.26 10.6821,10.8261 0 0 1 3.56,0.4 12.7473,12.9192 0 0 1 8.79,6.6 14.2428,14.4349 0 0 1 1.36,11.12 14.2428,14.4349 0 0 1 -14.24,11.26 10.6821,10.8261 0 0 1 -3.57,-0.4 13.6019,13.7853 0 0 1 -3.56,-1.55 l -9.97,10.1 a 3.88117,3.9335 0 0 1 -2.67,1.55 M 23.76,99.78 a 8.97298,9.09396 -180 0 0 -8.83,7 9.89876,10.0322 -180 0 0 1.14,7.21 l 2.31,2.35 3.56,1.16 h 1.92 a 8.97298,9.09396 -180 0 0 8.69,-6.86 9.40026,9.52701 -180 0 0 -6.51,-10.83 h -2.28"
   class="st3"
   id="path19"
   inkscape:connector-curvature="0"
   style="stroke:none;stroke-width:38.25;stroke-linecap:butt" />
				</g>
				<g
   id="shape8315-8"
   transform="translate(18.7737,-18.9424)">
					<title
   id="title22">Sheet.8315</title>
					<path
   d="m 13.03,127.56 a 7.65552,7.75874 0 1 1 -7.66,-7.65 7.69112,7.79482 0 0 1 7.66,7.65 z"
   class="st4"
   id="path24"
   inkscape:connector-curvature="0"
   style="fill:#00aeef;stroke:none;stroke-width:38.25;stroke-linecap:butt" />
				</g>
				<g
   id="shape8316-10"
   transform="translate(19.5191,-14.5792)">
					<title
   id="title27">Sheet.8316</title>
					<path
   d="m 4.24,106.99 a 10.6821,10.8261 0 0 1 3.56,0.4 4.66452,4.72742 0 0 1 3.56,-1.15 v 2.34 h -0.61 a 16.9846,17.2136 0 0 1 9.97,15.52 h 0.39 a 3.95238,4.00567 -180 0 0 0.4,-1.55 v -2.96 c 0,-1.95 0.78,-3.11 1.92,-3.61 -1.14,-0.4 -1.92,-1.16 -1.92,-3.61 v -2.27 a 1.81596,1.84044 -180 0 0 -1.82,-1.95 v -2.31 h 0.78 a 5.51909,5.59351 0 0 1 2.67,0.79 c 0.79,0.8 0.79,1.95 0.79,3.61 v 2.71 a 1.81596,1.84044 -180 0 0 1.92,1.95 v 2.34 a 1.81596,1.84044 -180 0 0 -1.92,1.95 v 2.35 c 0,1.55 0,2.34 -0.79,3.1 a 3.24024,3.28393 0 0 1 -2.67,0.79 18.3376,18.5849 0 0 1 -2.67,7.76 H 31.19 V 97.29 H 0 v 10.1 a 15.7027,15.9144 0 0 1 4.24,-0.4 z"
   class="st1"
   id="path29"
   inkscape:connector-curvature="0"
   style="fill:#2bace2;stroke:none;stroke-width:38.25;stroke-linecap:butt" />
				</g>
			</g>
		</g>
	</g>
</svg>

<?xml version="1.0" encoding="UTF-8" standalone="no"?>
<!DOCTYPE svg PUBLIC "-//W3C//DTD SVG 1.1//EN" "http://www.w3.org/Graphics/SVG/1.1/DTD/svg11.dtd">
<!-- Generated by Microsoft Visio, SVG Export Azure Cosmos DB Document Explorer.svg Page-1 -->
<svg xmlns="http://www.w3.org/2000/svg" xmlns:xlink="http://www.w3.org/1999/xlink" xmlns:ev="http://www.w3.org/2001/xml-events"
		width="1.8499in" height="1.8499in" viewBox="0 0 133.193 133.193" xml:space="preserve" color-interpolation-filters="sRGB"
		class="st5">
	<style type="text/css">
	<![CDATA[
		.st1 {fill:#2bace2;stroke:none;stroke-linecap:butt;stroke-width:38.25}
		.st2 {fill:#7a7a7a}
		.st3 {stroke:none;stroke-linecap:butt;stroke-width:38.25}
		.st4 {fill:#00aeef;stroke:none;stroke-linecap:butt;stroke-width:38.25}
		.st5 {fill:none;fill-rule:evenodd;font-size:12px;overflow:visible;stroke-linecap:square;stroke-miterlimit:3}
	]]>
	</style>

	<g>
		<title>Page-1</title>
		<g id="group8116-1" transform="translate(38.25,-38.25)">
			<title>Azure Cosmos DB Document Explorer</title>
			<g id="group8117-2">
				<title>Sheet.8117</title>
				<g id="shape8118-3" transform="translate(22.8662,-17.8631)">
					<title>Sheet.8118</title>
					<path d="M0.11 100.57 L0.11 94.36 L0 94.36 L33.83 94.36 L33.83 133.19 L27.7 133.19 L27.7 131.61 L32.3 131.61
								 L32.3 95.52 L1.6 95.52 L1.6 95.23 L1.6 100.57 L0.11 100.57 Z" class="st1"/>
				</g>
				<g id="shape8119-5">
					<title>Sheet.8119</title>
					<path d="M4.21 133.16 A4.34406 4.40263 0 0 1 1.15 132 A4.66452 4.72742 0 0 1 1.15 125.8 L11.12 115.83 A13.8511
								 14.0379 0 0 1 9.98 105.37 A14.2428 14.4349 0 0 1 24.22 94.11 A10.6821 10.8261 0 0 1 27.78 94.51
								 A12.7473 12.9192 0 0 1 36.57 101.11 A14.2428 14.4349 0 0 1 37.93 112.23 A14.2428 14.4349 0 0 1 23.69
								 123.49 A10.6821 10.8261 0 0 1 20.12 123.09 A13.6019 13.7853 0 0 1 16.56 121.54 L6.59 131.64 A3.88117
								 3.9335 0 0 1 3.92 133.19 L4.21 133.16 ZM23.76 99.78 A8.97298 9.09396 -180 0 0 14.93 106.78 A9.89876
								 10.0322 -180 0 0 16.07 113.99 L18.38 116.34 L21.94 117.5 L23.86 117.5 A8.97298 9.09396 -180 0 0
								 32.55 110.64 A9.40026 9.52701 -180 0 0 26.04 99.81 L23.76 99.81 L23.76 99.78 Z" class="st2"/>
					<path d="M4.21 133.16 A4.34406 4.40263 0 0 1 1.15 132 A4.66452 4.72742 0 0 1 1.15 125.8 L11.12 115.83 A13.8511
								 14.0379 0 0 1 9.98 105.37 A14.2428 14.4349 0 0 1 24.22 94.11 A10.6821 10.8261 0 0 1 27.78 94.51
								 A12.7473 12.9192 0 0 1 36.57 101.11 A14.2428 14.4349 0 0 1 37.93 112.23 A14.2428 14.4349 0 0 1 23.69
								 123.49 A10.6821 10.8261 0 0 1 20.12 123.09 A13.6019 13.7853 0 0 1 16.56 121.54 L6.59 131.64 A3.88117
								 3.9335 0 0 1 3.92 133.19M23.76 99.78 A8.97298 9.09396 -180 0 0 14.93 106.78 A9.89876 10.0322 -180
								 0 0 16.07 113.99 L18.38 116.34 L21.94 117.5 L23.86 117.5 A8.97298 9.09396 -180 0 0 32.55 110.64
								 A9.40026 9.52701 -180 0 0 26.04 99.81 L23.76 99.81" class="st3"/>
				</g>
				<g id="shape8120-8" transform="translate(18.7737,-18.9424)">
					<title>Sheet.8120</title>
					<path d="M13.03 127.56 A7.65552 7.75874 0 1 1 5.37 119.91 A7.69112 7.79482 0 0 1 13.03 127.56 Z" class="st4"/>
				</g>
				<g id="shape8121-10" transform="translate(19.5191,-14.5792)">
					<title>Sheet.8121</title>
					<path d="M4.24 106.99 A10.6821 10.8261 0 0 1 7.8 107.39 A4.66452 4.72742 0 0 1 11.36 106.24 L11.36 108.58 L10.75
								 108.58 A16.9846 17.2136 0 0 1 20.72 124.1 L21.11 124.1 A3.95238 4.00567 -180 0 0 21.51 122.55 L21.51
								 119.59 C21.51 117.64 22.29 116.48 23.43 115.98 C22.29 115.58 21.51 114.82 21.51 112.37 L21.51 110.1
								 A1.81596 1.84044 -180 0 0 19.69 108.15 L19.69 105.84 L20.47 105.84 A5.51909 5.59351 0 0 1 23.14
								 106.63 C23.93 107.43 23.93 108.58 23.93 110.24 L23.93 112.95 A1.81596 1.84044 -180 0 0 25.85 114.9
								 L25.85 117.24 A1.81596 1.84044 -180 0 0 23.93 119.19 L23.93 121.54 C23.93 123.09 23.93 123.88 23.14
								 124.64 A3.24024 3.28393 0 0 1 20.47 125.43 A18.3376 18.5849 0 0 1 17.8 133.19 L31.19 133.19 L31.19
								 97.29 L0 97.29 L0 107.39 A15.7027 15.9144 0 0 1 4.24 106.99 Z" class="st1"/>
				</g>
			</g>
		</g>
	</g>
</svg>
